src/components/Categories/kitchen_knives.svg

<svg width="43" height="46" viewBox="0 0 43 46" fill="none" xmlns="http://www.w3.org/2000/svg">
<path d="M41.5885 0C41.937 0.227604 42.0331 0.551042 42.0452 0.958333C42.2494 8.45729 40.1586 15.3094 36.2172 21.6464C34.595 24.2578 32.6484 26.6057 30.4734 28.774C27.5174 31.7208 24.5734 34.6557 21.6174 37.6026C21.0286 38.1896 20.7763 38.1896 20.1995 37.6146C17.8443 35.2667 15.4891 32.9187 13.1339 30.5589C13.0137 30.4391 12.9176 30.3073 12.7974 30.1516C12.6532 30.2833 12.5451 30.3552 12.461 30.451C9.02429 33.8651 5.59964 37.2911 2.16297 40.7052C1.61022 41.2562 1.29779 41.8911 1.35787 42.6698C1.44199 43.8437 2.42733 44.6943 3.60493 44.6583C4.75849 44.6224 5.70778 43.712 5.70778 42.562C5.70778 41.6995 6.02021 41.0286 6.64506 40.4177C8.79598 38.3094 10.9229 36.1651 13.0618 34.0448C13.1579 33.949 13.254 33.8411 13.3622 33.7693C13.6626 33.5536 13.963 33.5776 14.2153 33.8292C14.4797 34.0807 14.4917 34.3802 14.2995 34.6797C14.2153 34.7995 14.1072 34.9073 13.999 35.0151C11.8361 37.1713 9.67317 39.3396 7.49822 41.4838C7.20982 41.7714 7.08966 42.0828 7.07764 42.4781C7.05361 44.1193 6.00819 45.4729 4.45808 45.8802C2.95604 46.2755 1.32182 45.6286 0.51673 44.3229C-0.288364 43.0052 -0.120136 41.1964 0.961334 40.0224C1.5982 39.3276 2.28313 38.6807 2.95604 38.0099C15.5011 25.4797 28.0702 12.9615 40.6272 0.443229C40.7834 0.2875 40.9637 0.14375 41.1319 0C41.2881 0 41.4323 0 41.5885 0ZM20.9205 36.3687C21.0046 36.2849 21.0887 36.225 21.1608 36.1411C24.0447 33.2661 26.9406 30.3911 29.8245 27.5042C33.0329 24.2818 35.6164 20.6042 37.503 16.4594C39.4616 12.1349 40.5792 7.59479 40.7234 2.83906C40.7234 2.68333 40.7234 2.5276 40.7234 2.2401C40.1706 2.80312 39.714 3.24635 39.2814 3.71354C39.1973 3.80937 39.1733 3.97708 39.1612 4.12083C38.993 5.36667 38.8969 6.62448 38.6566 7.85833C37.4069 14.5187 34.4268 20.3286 29.8125 25.276C27.1209 28.163 24.261 30.8823 21.4852 33.6734C21.3891 33.7693 21.2689 33.8891 21.1608 33.8891C20.9205 33.8771 20.608 33.8771 20.4758 33.7333C20.3317 33.5776 20.3076 33.2542 20.3317 33.0146C20.3437 32.8708 20.5359 32.7271 20.6561 32.6073C22.9392 30.3312 25.2223 28.0552 27.5054 25.7792C32.6964 20.5922 36.1091 14.4708 37.4068 7.22344C37.515 6.63646 37.5751 6.04948 37.6592 5.51042C29.7044 13.4406 21.7496 21.3589 13.8188 29.2771C16.138 31.5891 18.5172 33.9609 20.9205 36.3687Z" fill=""/>
</svg>

<svg xmlns="http://www.w3.org/2000/svg" width="43" height="46" fill="none"><path d="M41.589 0c.348.228.444.551.456.958.204 7.5-1.886 14.351-5.828 20.688-1.622 2.612-3.569 4.96-5.744 7.128l-8.856 8.829c-.588.587-.84.587-1.418.012-2.355-2.348-4.71-4.696-7.065-7.056-.12-.12-.216-.252-.337-.407-.144.131-.252.203-.336.299-3.437 3.414-6.861 6.84-10.298 10.254-.553.551-.865 1.186-.805 1.965.084 1.174 1.07 2.024 2.247 1.988 1.153-.036 2.103-.946 2.103-2.096 0-.862.312-1.533.937-2.144 2.151-2.109 4.278-4.253 6.417-6.373.096-.096.192-.204.3-.276.3-.215.601-.191.853.06.265.252.277.551.085.85-.085.12-.193.228-.301.336-2.163 2.156-4.326 4.325-6.5 6.469-.29.287-.41.599-.421.994-.024 1.641-1.07 2.995-2.62 3.402-1.502.395-3.136-.251-3.941-1.557-.805-1.318-.637-3.127.444-4.3.637-.695 1.322-1.342 1.995-2.013C15.501 25.48 28.07 12.962 40.627.443c.156-.156.337-.3.505-.443h.457ZM20.92 36.369c.084-.084.168-.144.24-.228 2.884-2.875 5.78-5.75 8.663-8.637 3.209-3.222 5.792-6.9 7.679-11.045 1.959-4.324 3.076-8.864 3.22-13.62V2.24c-.552.563-1.009 1.006-1.442 1.474-.084.095-.108.263-.12.407-.168 1.246-.264 2.503-.504 3.737-1.25 6.66-4.23 12.47-8.844 17.418-2.692 2.887-5.552 5.606-8.328 8.397-.096.096-.216.216-.324.216-.24-.012-.553-.012-.685-.156-.144-.155-.168-.479-.144-.718.012-.144.204-.288.324-.408l6.85-6.828c5.19-5.187 8.603-11.308 9.9-18.556.109-.587.17-1.174.253-1.713-7.955 7.93-15.91 15.849-23.84 23.767 2.319 2.312 4.698 4.684 7.101 7.092Z"/></svg>
